X:26
T:The Man in the Moon
C:Trad
M:3/4
L:1/4
Z:Steve Mansfield
K:G
D|G>A G | FED | GAB | c2B/c/ | d2c| BcA| (G3 | G2) :|
B/c/ | d3 | d3 | cAB | c3| B>A B/c/ | dBG | EFG |
AFD | G>A G | FED | GAB |c2B/c/ | d2c | BcA | (G3|G2) ||
<end>
<start>
